TH1/XpYp.svg

<svg xmlns="http://www.w3.org/2000/svg" viewBox="0 0 1200 800" preserveAspectRatio="none" width="1200" height="800">
 <path d="M0,0H1200V800H0Z" style="fill: white;"></path>
 <g>
  <g transform="translate(120,80)">
   <path d="M0,0H960V640H0Z" style="fill: white; stroke: black; stroke-width: 1;"></path>
   <svg x="0" y="0" overflow="hidden" width="960" height="640" viewBox="0 0 960 640">
    <g>
     <path d="M0,640h19v-1h10v1h38v-2h10v-1h19v-2h10v1h9v-4h10v-2h9v-1h10v-5h19v-7h10v-5h9v-11h10v5h10v-15h9v7h10v-18h9v-21h10v-1h10v-3h9v-36h10v-6h9v-11h10v-17h10v-47h9v-3h10v-25h9v-12h10v-37h10v-14h9v-51h10v-35h19v-39h10v-27h9v-69h10v32h9v-54h10v45h10v-53h9v-27h10v17h9v24h10v-36h10v-44h9v73h10v2h9v12h10v4h10v49h9v17h10v12h9v25h10v16h10v9h9v36h10v44h9v13h10v21h10v63h9v-6h10v29h9v24h10v15h10v22h9v18h10v23h9v-1h10v21h10v6h9v16h10v3h9v12h10v7h10v-8h9v12h10v5h9v4h20v4h9v-1h10v7h9v-4h10v2h10v3h28v1h48v-1h10" style="stroke-linejoin: miter; stroke: #00009a; stroke-width: 1; fill: none;"></path>
    </g>
   </svg>
   <g>
    <g>
     <path d="M0,0h960M0,0v24m24,-24v12m24,-12v12m24,-12v12m24,-12v12m24,-12v24m24,-24v12m24,-12v12m24,-12v12m24,-12v12m24,-12v24m24,-24v12m24,-12v12m24,-12v12m24,-12v12m24,-12v24m24,-24v12m24,-12v12m24,-12v12m24,-12v12m24,-12v24m24,-24v12m24,-12v12m24,-12v12m24,-12v12m24,-12v24m24,-24v12m24,-12v12m24,-12v12m24,-12v12m24,-12v24m24,-24v12m24,-12v12m24,-12v12m24,-12v12m24,-12v24m24,-24v12m24,-12v12m24,-12v12m24,-12v12m24,-12v24" style="stroke: black; stroke-width: 1;"></path>
     <g font-family="Arial" font-size="28" space="preserve" fill="black" text-anchor="middle">
      <text transform="translate(0,-6)">
       -4
      </text>
      <text transform="translate(120,-6)">
       -3
      </text>
      <text transform="translate(240,-6)">
       -2
      </text>
      <text transform="translate(360,-6)">
       -1
      </text>
      <text transform="translate(480,-6)">
       0
      </text>
      <text transform="translate(600,-6)">
       1
      </text>
      <text transform="translate(720,-6)">
       2
      </text>
      <text transform="translate(840,-6)">
       3
      </text>
      <text transform="translate(960,-6)">
       4
      </text>
     </g>
    </g>
    <g transform="translate(960)">
     <path d="M0,0v640M0,640h-36m36,-14h-18m18,-14h-18m18,-14h-18m18,-15h-18m18,-14h-36m36,-14h-18m18,-14h-18m18,-14h-18m18,-14h-18m18,-14h-36m36,-14h-18m18,-15h-18m18,-14h-18m18,-14h-18m18,-14h-36m36,-14h-18m18,-14h-18m18,-14h-18m18,-14h-18m18,-15h-36m36,-14h-18m18,-14h-18m18,-14h-18m18,-14h-18m18,-14h-36m36,-14h-18m18,-14h-18m18,-15h-18m18,-14h-18m18,-14h-36m36,-14h-18m18,-14h-18m18,-14h-18m18,-14h-18m18,-14h-36m36,-15h-18m18,-14h-18m18,-14h-18m18,-14h-18m18,-14h-36m36,-14h-18m18,-14h-18m18,-14h-18m18,-15h-18m18,-14h-36" style="stroke: black; stroke-width: 1;"></path>
     <g font-family="Arial" font-size="28" space="preserve" fill="black" text-anchor="start">
      <text dy=".4em" transform="translate(4,640)">
       0
      </text>
      <text dy=".4em" transform="translate(4,569)">
       100
      </text>
      <text dy=".4em" transform="translate(4,499)">
       200
      </text>
      <text dy=".4em" transform="translate(4,428)">
       300
      </text>
      <text dy=".4em" transform="translate(4,357)">
       400
      </text>
      <text dy=".4em" transform="translate(4,287)">
       500
      </text>
      <text dy=".4em" transform="translate(4,216)">
       600
      </text>
      <text dy=".4em" transform="translate(4,146)">
       700
      </text>
      <text dy=".4em" transform="translate(4,75)">
       800
      </text>
      <text dy=".4em" transform="translate(4,4)">
       900
      </text>
     </g>
    </g>
   </g>
  </g>
  <g transform="translate(120,4)" font-family="Arial" font-size="40" space="preserve">
   <text fill="black" text-anchor="middle" dy=".8em" transform="translate(480)">
    This is the px distribution
   </text>
  </g>
  <g transform="translate(936,52)" font-family="Arial" font-size="25" space="preserve" fill="black">
   <path d="M0,0H240V128H0Z" style="fill: white; stroke: black; stroke-width: 1;"></path>
   <text text-anchor="middle" dy=".4em" transform="translate(120,16)">
    hpx
   </text>
   <text text-anchor="start" dy=".4em" transform="translate(12,48)">
    Entries
   </text>
   <text text-anchor="end" dy=".4em" transform="translate(228,48)">
    25000
   </text>
   <text text-anchor="start" dy=".4em" transform="translate(12,80)">
    Mean
   </text>
   <text text-anchor="end" dy=".4em" transform="translate(228,80)">
    0.003163
   </text>
   <text text-anchor="start" dy=".4em" transform="translate(12,112)">
    Std Dev
   </text>
   <text text-anchor="end" dy=".4em" transform="translate(228,112)">
    1.004
   </text>
   <path d="M0,32h240" style="stroke: black; stroke-width: 1;"></path>
  </g>
 </g>
</svg>

<svg xmlns="http://www.w3.org/2000/svg" viewBox="0 0 1200 800" preserveAspectRatio="none" width="1200" height="800">
 <path d="M0,0H1200V800H0Z" style="fill: white;"></path>
 <g>
  <g transform="translate(120,80)">
   <path d="M0,0H960V640H0Z" style="fill: white; stroke: black; stroke-width: 1;"></path>
   <svg x="0" y="0" overflow="hidden" width="960" height="640" viewBox="0 0 960 640">
    <g>
     <path d="M0,640h19v-1h10v1h38v-2h10v-1h19v-2h10v1h9v-4h10v-2h9v-1h10v-5h19v-7h10v-5h9v-11h10v5h10v-15h9v7h10v-18h9v-21h10v-1h10v-3h9v-36h10v-6h9v-11h10v-17h10v-47h9v-3h10v-25h9v-12h10v-37h10v-14h9v-51h10v-35h19v-39h10v-27h9v-69h10v32h9v-54h10v45h10v-53h9v-27h10v17h9v24h10v-36h10v-44h9v73h10v2h9v12h10v4h10v49h9v17h10v12h9v25h10v16h10v9h9v36h10v44h9v13h10v21h10v63h9v-6h10v29h9v24h10v15h10v22h9v18h10v23h9v-1h10v21h10v6h9v16h10v3h9v12h10v7h10v-8h9v12h10v5h9v4h20v4h9v-1h10v7h9v-4h10v2h10v3h28v1h48v-1h10" style="stroke-linejoin: miter; stroke: #00009a; stroke-width: 1; fill: none;"></path>
    </g>
   </svg>
   <g>
    <g>
     <path d="M0,0h960M0,0V24M24,0V12M48,0V12M72,0V12M96,0V12M120,0V24M144,0V12M168,0V12M192,0V12M216,0V12M240,0V24M264,0V12M288,0V12M312,0V12M336,0V12M360,0V24M384,0V12M408,0V12M432,0V12M456,0V12M480,0V24M504,0V12M528,0V12M552,0V12M576,0V12M600,0V24M624,0V12M648,0V12M672,0V12M696,0V12M720,0V24M744,0V12M768,0V12M792,0V12M816,0V12M840,0V24M864,0V12M888,0V12M912,0V12M936,0V12M960,0V24" style="stroke: black; stroke-width: 1;"></path>
     <g font-family="Arial" font-size="28" space="preserve" fill="black" text-anchor="middle">
      <text transform="translate(0,-6)">
       -4
      </text>
      <text transform="translate(120,-6)">
       -3
      </text>
      <text transform="translate(240,-6)">
       -2
      </text>
      <text transform="translate(360,-6)">
       -1
      </text>
      <text transform="translate(480,-6)">
       0
      </text>
      <text transform="translate(600,-6)">
       1
      </text>
      <text transform="translate(720,-6)">
       2
      </text>
      <text transform="translate(840,-6)">
       3
      </text>
      <text transform="translate(960,-6)">
       4
      </text>
     </g>
    </g>
    <g transform="translate(960)">
     <path d="M0,0v640M0,640H-36M0,626H-18M0,612H-18M0,598H-18M0,583H-18M0,569H-36M0,555H-18M0,541H-18M0,527H-18M0,513H-18M0,499H-36M0,485H-18M0,470H-18M0,456H-18M0,442H-18M0,428H-36M0,414H-18M0,400H-18M0,386H-18M0,372H-18M0,357H-36M0,343H-18M0,329H-18M0,315H-18M0,301H-18M0,287H-36M0,273H-18M0,259H-18M0,244H-18M0,230H-18M0,216H-36M0,202H-18M0,188H-18M0,174H-18M0,160H-18M0,146H-36M0,131H-18M0,117H-18M0,103H-18M0,89H-18M0,75H-36M0,61H-18M0,47H-18M0,33H-18M0,18H-18M0,4H-36" style="stroke: black; stroke-width: 1;"></path>
     <g font-family="Arial" font-size="28" space="preserve" fill="black" text-anchor="start">
      <text dy=".4em" transform="translate(4,640)">
       0
      </text>
      <text dy=".4em" transform="translate(4,569)">
       100
      </text>
      <text dy=".4em" transform="translate(4,499)">
       200
      </text>
      <text dy=".4em" transform="translate(4,428)">
       300
      </text>
      <text dy=".4em" transform="translate(4,357)">
       400
      </text>
      <text dy=".4em" transform="translate(4,287)">
       500
      </text>
      <text dy=".4em" transform="translate(4,216)">
       600
      </text>
      <text dy=".4em" transform="translate(4,146)">
       700
      </text>
      <text dy=".4em" transform="translate(4,75)">
       800
      </text>
      <text dy=".4em" transform="translate(4,4)">
       900
      </text>
     </g>
    </g>
   </g>
  </g>
  <g transform="translate(120,4)" font-family="Arial" font-size="40" space="preserve">
   <text fill="black" text-anchor="middle" dy=".8em" transform="translate(480)">
    This is the px distribution
   </text>
  </g>
  <g transform="translate(936,52)" font-family="Arial" font-size="25" space="preserve" fill="black">
   <path d="M0,0H240V128H0Z" style="fill: white; stroke: black; stroke-width: 1;"></path>
   <text text-anchor="middle" dy=".4em" transform="translate(120,16)">
    hpx
   </text>
   <text text-anchor="start" dy=".4em" transform="translate(12,48)">
    Entries
   </text>
   <text text-anchor="end" dy=".4em" transform="translate(228,48)">
    25000
   </text>
   <text text-anchor="start" dy=".4em" transform="translate(12,80)">
    Mean
   </text>
   <text text-anchor="end" dy=".4em" transform="translate(228,80)">
    0.003163
   </text>
   <text text-anchor="start" dy=".4em" transform="translate(12,112)">
    Std Dev
   </text>
   <text text-anchor="end" dy=".4em" transform="translate(228,112)">
    1.004
   </text>
   <path d="M0,32h240" style="stroke: black; stroke-width: 1;"></path>
  </g>
 </g>
</svg>
